assets/img/braze_icons/wifi.svg

<svg fill="none" height="24" viewBox="0 0 24 24" width="24" xmlns="http://www.w3.org/2000/svg"><g clip-rule="evenodd" fill="#801ed7" fill-rule="evenodd"><path d="m11 19.5c0-.5523.4477-1 1-1h.01c.5523 0 1 .4477 1 1s-.4477 1-1 1h-.01c-.5523 0-1-.4477-1-1z"/><path d="m11.9999 5.5c-3.90595 0-7.46123 1.49161-10.13093 3.93803-.40718.37312-1.039745.34552-1.41287-.06167-.3731254-.40718-.345518-1.03974.061662-1.41286 3.024038-2.77113 7.056598-4.4635 11.482138-4.4635 4.4255 0 8.4581 1.69237 11.4821 4.4635.4072.37312.4348 1.00568.0617 1.41286-.3731.40719-1.0057.43479-1.4129.06167-2.6697-2.44642-6.225-3.93803-10.1309-3.93803z"/><path d="m12 10.5c-2.53335 0-4.84452.9407-6.60705 2.4933-.41442.3651-1.04632.3251-1.41139-.0893-.36506-.4144-.32505-1.0463.08937-1.4114 2.11372-1.862 4.89057-2.9926 7.92907-2.9926s5.8153 1.1306 7.929 2.9926c.4145.3651.4545.997.0894 1.4114s-.997.4544-1.4114.0893c-1.7625-1.5526-4.0737-2.4933-6.607-2.4933z"/><path d="m11.9999 15.5c-1.1813 0-2.26449.4084-3.11996 1.0926-.43132.3449-1.0606.2749-1.40554-.1565-.34493-.4313-.2749-1.0606.15642-1.4055 1.19723-.9574 2.71758-1.5306 4.36908-1.5306 1.6268 0 3.1265.5562 4.3154 1.4881.4346.3407.5108.9693.1701 1.4039-.3408.4347-.9693.5108-1.404.1701-.8493-.6657-1.9177-1.0621-3.0815-1.0621z"/></g></svg>

<svg width="24" height="24" viewBox="0 0 24 24" fill="none" xmlns="http://www.w3.org/2000/svg">
<path fill-rule="evenodd" clip-rule="evenodd" d="M11 19.5C11 18.9477 11.4477 18.5 12 18.5H12.01C12.5623 18.5 13.01 18.9477 13.01 19.5C13.01 20.0523 12.5623 20.5 12.01 20.5H12C11.4477 20.5 11 20.0523 11 19.5Z" fill="#801ED7"/>
<path fill-rule="evenodd" clip-rule="evenodd" d="M11.9999 5.5C8.09395 5.5 4.53867 6.99161 1.86897 9.43803C1.46179 9.81115 0.829225 9.78355 0.4561 9.37636C0.0829746 8.96918 0.110582 8.33662 0.517762 7.9635C3.5418 5.19237 7.57436 3.5 11.9999 3.5C16.4254 3.5 20.458 5.19237 23.482 7.9635C23.8892 8.33662 23.9168 8.96918 23.5437 9.37636C23.1706 9.78355 22.538 9.81115 22.1308 9.43803C19.4611 6.99161 15.9058 5.5 11.9999 5.5Z" fill="#801ED7"/>
<path fill-rule="evenodd" clip-rule="evenodd" d="M12 10.5C9.46665 10.5 7.15548 11.4407 5.39295 12.9933C4.97853 13.3584 4.34663 13.3184 3.98156 12.904C3.6165 12.4896 3.65651 11.8577 4.07093 11.4926C6.18465 9.6306 8.9615 8.5 12 8.5C15.0385 8.5 17.8153 9.6306 19.929 11.4926C20.3435 11.8577 20.3835 12.4896 20.0184 12.904C19.6533 13.3184 19.0214 13.3584 18.607 12.9933C16.8445 11.4407 14.5333 10.5 12 10.5Z" fill="#801ED7"/>
<path fill-rule="evenodd" clip-rule="evenodd" d="M11.9999 15.5C10.8186 15.5 9.73541 15.9084 8.87994 16.5926C8.44862 16.9375 7.81934 16.8675 7.4744 16.4361C7.12947 16.0048 7.1995 15.3755 7.63082 15.0306C8.82805 14.0732 10.3484 13.5 11.9999 13.5C13.6267 13.5 15.1264 14.0562 16.3153 14.9881C16.7499 15.3288 16.8261 15.9574 16.4854 16.392C16.1446 16.8267 15.5161 16.9028 15.0814 16.5621C14.2321 15.8964 13.1637 15.5 11.9999 15.5Z" fill="#801ED7"/>
</svg>
